X: 30746
T: Oro Bog Liom I
R: slide
M: 12/8
K: Gmajor
B2d cAA BGG AFD|B2d cAA AGF G2A|
B2d cAA BGG AFD|B2d cAA AGF G2A|
B2d cAA BGG AFD|B2d cAA AGF G2A|
B2d cAA BGG AFD|B2d cAA AGF GBd||
g2g fed ege dBG|g2g fed ege d2g|
gag fed ege dBG|B2d cAA AGF GBd|
g2g fed ege dBG|g2g fed ege d2g|
gag fed ege dBG|B2d cAA AGF G2A||

